src/assets/svg/5-store/2-mars.svg

<svg width="361" height="449" viewBox="0 0 361 449" fill="none" xmlns="http://www.w3.org/2000/svg">
<path d="M237.904 76.8116L250.696 44.55L285.032 39.4971L306.574 66.7061L293.784 98.9678L259.448 104.02L237.904 76.8116Z" fill="#E9E8E8" fill-opacity="0.8"/>
<path d="M194.197 111.756L206.989 79.4942L241.325 74.4413L262.868 101.65L250.077 133.912L215.741 138.965L194.197 111.756Z" fill="#E9E8E8" fill-opacity="0.8"/>
<path d="M245.821 132.21L258.613 99.9479L292.949 94.8953L314.491 122.104L301.701 154.366L267.365 159.419L245.821 132.21Z" fill="#E9E8E8" fill-opacity="0.8"/>
<g clip-path="url(#clip0_283_202)">
<path d="M299.997 299C299.997 381.846 232.852 449 150.002 449C67.1605 449 0.00195312 381.846 0.00195312 299C0.00195312 216.163 67.1605 149 150.002 149C232.852 149 299.997 216.163 299.997 299Z" fill="#FC6E51"/>
<path d="M262.497 274.006C262.497 291.264 245.707 305.253 224.997 305.253C204.293 305.253 187.502 291.264 187.502 274.006C187.502 256.739 204.293 242.75 224.997 242.75C245.707 242.75 262.497 256.739 262.497 274.006Z" fill="#E9573F"/>
<path d="M133.015 374C133.015 384.355 121.823 392.75 108.016 392.75C94.2108 392.75 83.0137 384.355 83.0137 374C83.0137 363.645 94.2108 355.25 108.016 355.25C121.823 355.25 133.015 363.645 133.015 374Z" fill="#E9573F"/>
<path d="M95.9908 286.503C95.9908 300.309 82.0012 311.506 64.7439 311.506C47.4818 311.506 33.4922 300.31 33.4922 286.503C33.4922 272.697 47.4812 261.5 64.7439 261.5C82.0012 261.5 95.9908 272.696 95.9908 286.503Z" fill="#E9573F"/>
<path d="M187.502 205.25C186.825 205.25 186.165 205.369 185.561 205.561C185.268 205.662 156.045 215.138 124.478 217.793C94.0411 220.347 73.7252 213.224 62.0388 206.797C51.3041 200.902 45.6739 194.493 44.2085 192.67C41.2331 195.628 38.3814 198.713 35.6621 201.918C38.6468 205.305 44.9543 211.54 55.2362 217.317C74.0726 227.919 94.9791 230.811 112.181 230.811C116.956 230.811 121.447 230.592 125.525 230.244C157.912 227.524 187.181 218.177 189.443 217.436C191.942 216.621 193.754 214.277 193.754 211.503C193.755 208.052 190.954 205.25 187.502 205.25Z" fill="#E9573F"/>
<path d="M296.977 329.139C291.429 330.265 262.168 336.042 233.293 338.468C174.228 343.43 153.573 331.364 153.372 331.245C152.402 330.623 151.248 330.256 150.003 330.256C146.551 330.256 143.75 333.048 143.75 336.499C143.75 338.715 144.904 340.656 146.634 341.763C147.266 342.175 153.253 345.837 167.086 348.694C178.329 351.02 191.375 352.182 206.097 352.182C214.923 352.182 224.357 351.761 234.336 350.928C258.122 348.932 282.146 344.72 293.589 342.542C294.907 338.157 296.043 333.689 296.977 329.139Z" fill="#E9573F"/>
<path d="M201.29 392.75C200.064 392.75 198.929 393.107 197.967 393.711C197.692 393.885 170.226 410.914 139.547 413.487C108.085 416.124 80.9396 411.793 63.7051 407.701C53.0207 405.156 44.7169 402.391 39.5303 400.468C46.1313 407.655 53.4232 414.192 61.2969 419.978C75.6065 423.347 96.1145 426.79 120.11 426.79C126.693 426.79 133.541 426.533 140.591 425.938C174.383 423.11 203.396 405.055 204.614 404.295C206.372 403.187 207.534 401.228 207.534 399.003C207.534 395.551 204.742 392.75 201.29 392.75Z" fill="#E9573F"/>
</g>
<defs>
<clipPath id="clip0_283_202">
<rect width="300" height="300" fill="white" transform="translate(0 149)"/>
</clipPath>
</defs>
</svg>

<svg width="361" height="449" fill="none" xmlns="http://www.w3.org/2000/svg"><path d="m237.904 76.812 12.792-32.262 34.336-5.053 21.542 27.21-12.79 32.26-34.336 5.053-21.544-27.208Z" fill="#E9E8E8" fill-opacity=".8"/><path d="m194.197 111.756 12.792-32.262 34.336-5.053 21.543 27.209-12.791 32.262-34.336 5.053-21.544-27.209Z" fill="#E9E8E8" fill-opacity=".8"/><path d="m245.821 132.21 12.792-32.262 34.336-5.053 21.542 27.209-12.79 32.262-34.336 5.053-21.544-27.209Z" fill="#E9E8E8" fill-opacity=".8"/><g clip-path="url(#a)"><path d="M299.997 299c0 82.846-67.145 150-149.995 150-82.842 0-150-67.154-150-150 0-82.837 67.159-150 150-150 82.85 0 149.995 67.163 149.995 150Z" fill="#FC6E51"/><path d="M262.497 274.006c0 17.258-16.79 31.247-37.5 31.247-20.704 0-37.495-13.989-37.495-31.247 0-17.267 16.791-31.256 37.495-31.256 20.71 0 37.5 13.989 37.5 31.256ZM133.015 374c0 10.355-11.192 18.75-24.999 18.75-13.805 0-25.002-8.395-25.002-18.75s11.197-18.75 25.002-18.75c13.807 0 24.999 8.395 24.999 18.75ZM95.99 286.503c0 13.806-13.989 25.003-31.246 25.003-17.262 0-31.252-11.196-31.252-25.003 0-13.806 13.99-25.003 31.252-25.003 17.257 0 31.247 11.196 31.247 25.003ZM187.502 205.25a6.44 6.44 0 0 0-1.941.311c-.293.101-29.516 9.577-61.083 12.232-30.437 2.554-50.753-4.569-62.44-10.996-10.734-5.895-16.364-12.304-17.83-14.127a148.653 148.653 0 0 0-8.546 9.248c2.985 3.387 9.292 9.622 19.574 15.399 18.837 10.602 39.743 13.494 56.945 13.494 4.775 0 9.266-.219 13.344-.567 32.387-2.72 61.656-12.067 63.918-12.808a6.244 6.244 0 0 0 4.311-5.933 6.254 6.254 0 0 0-6.252-6.253ZM296.977 329.139c-5.548 1.126-34.809 6.903-63.684 9.329-59.065 4.962-79.72-7.104-79.921-7.223a6.247 6.247 0 0 0-9.622 5.254 6.24 6.24 0 0 0 2.884 5.264c.632.412 6.619 4.074 20.452 6.931 11.243 2.326 24.289 3.488 39.011 3.488 8.826 0 18.26-.421 28.239-1.254 23.786-1.996 47.81-6.208 59.253-8.386a154.43 154.43 0 0 0 3.388-13.403ZM201.29 392.75a6.223 6.223 0 0 0-3.323.961c-.275.174-27.741 17.203-58.42 19.776-31.462 2.637-58.607-1.694-75.842-5.786-10.684-2.545-18.988-5.31-24.175-7.233a150.83 150.83 0 0 0 21.767 19.51c14.31 3.369 34.818 6.812 58.813 6.812 6.583 0 13.431-.257 20.481-.852 33.792-2.828 62.805-20.883 64.023-21.643a6.246 6.246 0 0 0 2.92-5.292 6.247 6.247 0 0 0-6.244-6.253Z" fill="#E9573F"/></g><defs><clipPath id="a"><path fill="#fff" transform="translate(0 149)" d="M0 0h300v300H0z"/></clipPath></defs></svg>
